X: 06051
T: The MATE'S MARCH
C: Bob McQuillen 31 Jan 82
B: Bob's Note Book 6 #51
%R: march, reel
Z: 2021 John Chambers <jc:trillian.mit.edu>
M: C
L: 1/8
K: A
cB \
| A2EE A2cA | BAGF E2cd | e2ce dcBd | cecA B2cB |\
| A2E2 A2Ac | BAGF E2ed | c2A2 cBAG | A2A2 A2 :|
|: cd \
| e2c2 dcBA | BcBG E2cd | e2c2 dcBA | G2B2 B2cd |\
| e2ce dcBd | cAFA E2AB | c2ed cBAG | A6 :|
%%begintext align
%% Originally
%% from Sussex, England, Grainger Marbury,
%% AKA The Mate, nowlives in Temple, N.H.
%% as a student at Con Val High School in
%% Peterborough, N.H., he is a great soccer player,
%% Co-Captain of that team, and a great friend of mine -
%% Right, Mate? Love ya, Mate - Mac
%%endtext

%%sep 1 1 500

%%sep 1 1 500

